X:1
T:A Spring Song - Parry
T:James Gibb editions
T:#
%%score 1 { ( 2 4 ) | 3 }
L:1/8
Q:1/4=112
M:4/4
K:G
V:1 treble nm="Soprano" snm="S"
V:2 treble nm="Piano"
V:4 treble 
V:3 bass 
V:1
"^A Spring Song""^C. H. H. Parry\n (1848-1918)""^William Shakespeare\n(1564-1616)""^allegretto" z2 | %1
w: |
 z8 | z8 | z8 | z4 z2!mf! D2 | G2 G2 (3(ABA) (GA) |[M:4/4] B2 B2 d2!p! dc | B2 Bc A2 AB | %8
w: |||It|was a lo\- * * ver *|and his lass, With a|hey and a ho, and a|
 (3(GAG) FE F2!mf! D2 | G2 G2 (3(ABA) (GA) | B2 B2 e2 ed | c4 B3 B | E2 B2 (Bc) d2 | c4 B2 E2 | %14
w: hey * * no ni no! That|o'er the green * * corn\- *|field did pass In the|spring- time, the|on- ly pret\- * ty|ring- time, When|
 c2 A2"^rit."[Q:1/4=105] c4 | %15
w: birds do sing|
[Q:1/4=105]"^sostenuto"[Q:1/4=97][Q:1/4=105] c2[Q:1/4=93] A[Q:1/4=91]B[Q:1/4=90] !fermata!c2"^a tempo"[Q:1/4=112] e2 | %16
w: Hey ding a ding, Sweet|
 d2 c2 A3 G | !fermata!G8 ||"^più lento"[Q:1/4=84] z8 | z4 z2!p! E2 | F3 F E2 E2 | A2 F2 E2 E2 | %22
w: lo- vers love the|Spring.||Be-|tween the a- cres|of the rye These|
[Q:1/4=112][Q:1/4=112] F2 A2 G2 E2 | F2 D2 E2 E2 | A2 A2 ^G3 G | d2 d2 ^c4 | ^c2 B2 B2 ^G2 | %27
w: pret- ty coun- try|folks would lie: This|ca- rol they be-|gan that hour,|How that life was|
 ^A3 B B4 |[Q:1/4=84]"^rall."[Q:1/4=83][Q:1/4=84] B2[Q:1/4=82] =A2[Q:1/4=80] G2[Q:1/4=79] E2 | %29
w: but a flow'r,|How that life was|
[Q:1/4=78] F3[Q:1/4=76] F[Q:1/4=75] F4- |[Q:1/4=73] F4[Q:1/4=72] z2 || %31
w: but a flow'r.||
"^tempo primo"!mf![Q:1/4=112] D2 | G2 G2 (3(ABA) (GA) | B2 B2 d2!p! dc | %34
w: And|there- fore take * * the *|pre- sent time With a|
[Q:1/4=112][Q:1/4=112] !>!B2 Bc !>!A2 AB | (3(GAG) FE F2!mf! D2 | G2 G2 (3(ABA) (GA) | %37
w: hey and a ho, and a|hey * * no ni no! For|love is crown\- * * ed *|
 B2 B2 e2 (ed) | c4 B3 B | E2 B2 (Bc) d2 | c4 B2 E2 | c2 A2"^rit."[Q:1/4=105] c4 | %42
w: with the prime, In *|spring- time, the|on- ly pret\- * ty|ring- time, When|birds do sing|
"^sostenuto"[Q:1/4=97] !>!c2[Q:1/4=93] A[Q:1/4=91]B[Q:1/4=90] !fermata!c2!f![Q:1/4=100] e2 | %43
w: Hey ding a ding, Sweet|
[Q:1/4=100][Q:1/4=100] g2 d2 (B2 A>)G | G6 z2 | z8 | z8 | z8 | z8 |] %49
w: lo- vers love * the|Spring.|||||
V:2
!p! dg | f2 Be d2 Gc | B2 EA G2 [B,=FG]2 | [CEAc]2 [CEB]2 [CDGA]2 [F,CD]2 | [G,B,G]6 z2 | %5
[K:bass] [G,B,]DD,D [F,C]DD,D |[M:4/4] [G,B,]DD,D [F,C]DD,D | [G,B,]DD,D [F,C]DD,D | %8
 [G,B,]DD,D [F,C]DD,D | [G,B,]DD,D [F,C]DD,D | [G,B,]DD,D [^G,B,]EE,E | [A,C]EE,E [^G,B,]EE,E | %12
 [B,D]EE,E [^G,B,]EE,E | [A,C]EE,E [^G,B,]EE,E | [A,C]EE,E [A,C]=F=F,F | %15
[K:treble] [=Fc=f]4 !fermata![EGce][Dd][Ece][^F^f] | x4 d3 c | x8 ||!>(! [A,DF]4 [B,DE]4!>)! | %19
!>(! [A,DF]4 [B,DE]4!>)! | [A,DF]4 [B,DE]4 | [A,DF]4 [B,DE]4 | [A,DF]4 [B,DE]4 | [A,DF]4 [A,^CE]4 | %24
 [^CFA]4 [DF^G]4 | [FBd]4 [^E^G^c]4 | [=EF^c]2 [DFB]2 B2 ^G2 | [EF^A]4 [DFB]4 | %28
 [B,F]4 [B,E]2 [B,E]2 | [^CF]4 [B,DF]4- | [B,DF]4 [A,DF]2 ||[K:bass] x2 | x8 | x8 | %34
 [G,B,]DD,D [F,C]DD,D | [G,B,]DD,D [F,C]DD,D | [G,B,]DD,D [F,C]DD,D | [G,B,]DD,D [^G,B,]EE,E | %38
 [A,C]EE,E [^G,B,]EE,E | [B,D]EE,E [^G,B,]EE,E | [A,C]EE,E [^G,B,]EE,E | [A,C]EE,E [A,C]=F=F,F | %42
[K:treble] [=Fc=f]4 !fermata![EGce][Dd][Ece][^F^f] | x4 d4- | [B,Gd]6!f! dg | f2 Be d2 Gc | %46
 B2 EA G2 [B,=FG]2 | [CEAc]2 [C-G-B]2 [CFA]2 [F,CD]2 | [G,B,G]4 !>![Gdg]4 |] %49
V:3
!p! [B,DG]2 | [A,CF]2 [G,B,E]2 [F,A,D]2 [E,G,C]2 | [D,F,B,]2 [C,E,A,]2 [B,,D,G,]2 [G,,,G,,]2 | %3
 [A,,,A,,][B,,,B,,][C,,C,][A,,,A,,] [B,,,B,,]4 | [G,,,G,,]6 z2 | G,,8 |[M:4/4] G,,8 | G,,8 | G,,8 | %9
 G,,8 | G,,4 E,,4 | A,,4 E,,4- | E,,4 E,,4 | A,,4 E,,4 | A,,4 =F,,4 | %15
"^colla voce" [=F,,C,A,]4 !fermata![C,,C,]2 [A,,,A,,]2 | [B,,,B,,]2 [C,,C,]2 [D,,D,]4 | %17
 !fermata![G,,,G,,]8 || D,,4 G,,4 | D,,4 G,,4 | D,,4 G,,4 | D,,4 G,,4 | D,,4 G,,4 | D,,4 A,,4 | %24
 F,,4 B,,4 | ^G,,4 ^C,4 | ^A,,2 B,,2 F,,4- | F,,4 B,,4 |"^rall." D,4 E,2 G,2 | F,4 B,,4- | %30
 B,,4 D,2 || D,2 | G,,8 | G,,8 | G,,8 | G,,8 | G,,8 | G,,4 E,,4 | A,,4 E,,4- | E,,4 E,,4 | %40
 A,,4 E,,4 | A,,4 =F,,4 |"^colla voce" [=F,,C,A,]4 !fermata![C,G,C]2 [A,,,A,,]2 | %43
 [B,,,B,,]3 [C,,C,] [D,,D,]4 | [G,,,G,,]6!f! [B,D]2 | [A,CF]2 [G,B,E]2 [F,A,D]2 [E,G,C]2 | %46
 [D,F,B,]2 [C,E,A,]2 [B,,D,G,]2 [G,,,G,,]2 | [A,,,A,,][B,,,B,,][C,,C,][A,,,A,,] [D,,D,]4 | %48
 [G,,,G,,]4 !>![G,,D,B,]4 |] %49
V:4
 x2 | x8 | x8 | x8 | x8 |[K:bass] x8 |[M:4/4] x8 | x8 | x8 | x8 | x8 | x8 | x8 | x8 | x8 | %15
[K:treble] x8 | [Gdg]2 [GAeg]2 [GA]2- [FA]2 | !fermata![DGB]8 || x8 | x8 | x8 | x8 | x8 | x8 | x8 | %25
 x8 | x4 [^CF]4 | x8 | x8 | B,2 ^A,2 x4 | x6 ||[K:bass] [F,CD]2 | [G,B,]DD,D [F,C]DD,D | %33
 [G,B,]DD,D [F,C]DD,D | x8 | x8 | x8 | x8 | x8 | x8 | x8 | x8 |[K:treble] x8 | %43
 [Gdg]4 [DGB]2 [CFA]2 | x6 G2 | x8 | x8 | x8 | x8 |] %49

